X: 1
T: New Jig for Lois
C: Elke Baker 1996
R: jig
Z: 2019 John Chambers <jc:trillian.mit.edu>
N: PDF from Robert McOwen 2019-1-19
N: Suggested tune for Wheeling in the Wind
M: 6/8
L: 1/8
K: Am
|:\
"Am"c2A ecA | "Dm"fdc "G"Bcd | "Am"cBA ecA | aAa "G"g3 |\
"Am(F)"aAa AaA | "G"g2e dBG | "Am"ABA cde | "G"dBG "Am"A3 :|
|:\
"C"EEE E2D | E2F GEC | EEE E2D | EEE "(Am)"c3 |\
"C"EEE E2D | E2F GEC | "Am"cBA "G"BAG | "Am"EAA A3 :|
